X: 1
T:You Are My Sunshine
C:Jimmie Davis
S:jaybuckey.com, Tom Skinner
M:4/4
L:1/4
K:G
z D G A | "G"B2 B2 | z B A B | G2 G2 |
w:1.~The oth-er night, dear, as I lay sleep-ing
w:Ch:~You are my sun-shine, my on-ly sun-shine.
z G A B | "C"c2 e2 | z e d c | "G"B4 |
w:I dreamed I held you in_ my arms.
w:You make me hap-py when skies are grey.
z G A B | "C"c2 e2 | z e d c | "G"B2 G2 |
w:When I a-woke, dear, I was mis-tak-en.
w:You'll nev-er know, dear, how much I love you.
z2 G A | B3 c | "D"A2 A B | "G"G4 |]
w:So, I hung my head, and I cried.
w:Please don't take my sun-shine a-way.
%
W:(Instrumental)
W:
W:2. I'll always love you and make you happy,
W:If you will only say the same.
W:But if you leave me and love another,
W:You'll regret it all some day.
W:(Chorus)
W:(Instrumental)
W:
W:3. You told me once, dear, you really loved me
W:And no one else could come between.
W:But, now you've left me and love another.
W:You have shattered all of my dreams.
W:(Chorus)
W:(Instrumental)
W:
W:4. In all my dreams, dear, you seem to leave me.
W:When I awake my poor heart pains.
W:So when you come back and make me happy,
W:I'll forgive you dear. I'll take all the blame.
W:(Chorus)

%---------------------------------------------------------------------

